assets/1. 1-F/Crayon/Color/Crayon-color.svg

<svg width="100%" height="100%" viewBox="0 0 32 32" fill="none" xmlns="http://www.w3.org/2000/svg">
<path d="M5.79685 19.8359L12.25 26.2891L11.0468 27.4141L3.82058 29.5254C3.06117 29.7473 2.35705 29.0412 2.58104 28.2824L4.56247 21.5703L5.79685 19.8359Z" fill="url(#paint0_linear_18_22399)"/>
<path d="M5.79685 19.8359L12.25 26.2891L11.0468 27.4141L3.82058 29.5254C3.06117 29.7473 2.35705 29.0412 2.58104 28.2824L4.56247 21.5703L5.79685 19.8359Z" fill="url(#paint1_linear_18_22399)"/>
<path d="M5.79685 19.8359L12.25 26.2891L11.0468 27.4141L3.82058 29.5254C3.06117 29.7473 2.35705 29.0412 2.58104 28.2824L4.56247 21.5703L5.79685 19.8359Z" fill="url(#paint2_radial_18_22399)"/>
<rect x="24.1875" y="1.44531" width="9.1261" height="28.3506" rx="0.75" transform="rotate(45 24.1875 1.44531)" fill="url(#paint3_radial_18_22399)"/>
<rect x="24.1875" y="1.44531" width="9.1261" height="28.3506" rx="0.75" transform="rotate(45 24.1875 1.44531)" fill="url(#paint4_linear_18_22399)"/>
<rect x="24.1875" y="1.44531" width="9.1261" height="28.3506" rx="0.75" transform="rotate(45 24.1875 1.44531)" fill="url(#paint5_linear_18_22399)"/>
<path d="M29.1406 9.39845L22.6875 2.94533L23.6572 1.97566C23.9501 1.68275 24.4249 1.68275 24.7178 1.97566L30.1103 7.36812C30.4032 7.66103 30.4032 8.13588 30.1103 8.42879L29.1406 9.39845Z" fill="url(#paint6_linear_18_22399)"/>
<path d="M29.1406 9.39845L22.6875 2.94533L23.6572 1.97566C23.9501 1.68275 24.4249 1.68275 24.7178 1.97566L30.1103 7.36812C30.4032 7.66103 30.4032 8.13588 30.1103 8.42879L29.1406 9.39845Z" fill="url(#paint7_radial_18_22399)"/>
<path d="M29.1406 9.39845L22.6875 2.94533L23.6572 1.97566C23.9501 1.68275 24.4249 1.68275 24.7178 1.97566L30.1103 7.36812C30.4032 7.66103 30.4032 8.13588 30.1103 8.42879L29.1406 9.39845Z" fill="url(#paint8_linear_18_22399)"/>
<path d="M20.9844 4.64838L21.8525 3.78027L28.3056 10.2334L27.4375 11.1015L20.9844 4.64838Z" fill="url(#paint9_radial_18_22399)"/>
<path d="M6.35278 19.2801L7.22089 18.412L13.674 24.8651L12.8059 25.7332L6.35278 19.2801Z" fill="url(#paint10_radial_18_22399)"/>
<g filter="url(#filter0_i_18_22399)">
<path d="M11.9453 26.5938L11.1241 27.415C10.8312 27.7079 10.3563 27.7079 10.0634 27.415L4.67097 22.0225C4.37807 21.7296 4.37807 21.2547 4.67097 20.9619L5.4922 20.1406L11.9453 26.5938Z" fill="url(#paint11_radial_18_22399)"/>
</g>
<ellipse cx="17.328" cy="14.9531" rx="6.99919" ry="2.08256" transform="rotate(-45.082 17.328 14.9531)" fill="url(#paint12_radial_18_22399)"/>
<ellipse cx="17.328" cy="14.9531" rx="6.99919" ry="2.08256" transform="rotate(-45.082 17.328 14.9531)" fill="url(#paint13_radial_18_22399)"/>
<defs>
<filter id="filter0_i_18_22399" x="4.45129" y="19.9906" width="7.64403" height="7.64402" filterUnits="userSpaceOnUse" color-interpolation-filters="sRGB">
<feFlood flood-opacity="0" result="BackgroundImageFix"/>
<feBlend mode="normal" in="SourceGraphic" in2="BackgroundImageFix" result="shape"/>
<feColorMatrix in="SourceAlpha" type="matrix" values="0 0 0 0 0 0 0 0 0 0 0 0 0 0 0 0 0 0 127 0" result="hardAlpha"/>
<feOffset dx="0.15" dy="-0.15"/>
<feGaussianBlur stdDeviation="0.25"/>
<feComposite in2="hardAlpha" operator="arithmetic" k2="-1" k3="1"/>
<feColorMatrix type="matrix" values="0 0 0 0 0.215686 0 0 0 0 0.737255 0 0 0 0 0.556863 0 0 0 1 0"/>
<feBlend mode="normal" in2="shape" result="effect1_innerShadow_18_22399"/>
</filter>
<linearGradient id="paint0_linear_18_22399" x1="4.07973" y1="24.7014" x2="6.02575" y2="29.0221" gradientUnits="userSpaceOnUse">
<stop stop-color="#3FB171"/>
<stop offset="1" stop-color="#449B8E"/>
</linearGradient>
<linearGradient id="paint1_linear_18_22399" x1="7.79687" y1="24.7014" x2="7.07813" y2="25.5547" gradientUnits="userSpaceOnUse">
<stop offset="0.245571" stop-color="#35B27D"/>
<stop offset="1" stop-color="#35B27D" stop-opacity="0"/>
</linearGradient>
<radialGradient id="paint2_radial_18_22399" cx="0" cy="0" r="1" gradientUnits="userSpaceOnUse" gradientTransform="translate(2.53882 28.8203) rotate(5.2935) scale(2.03235 2.06882)">
<stop stop-color="#4AB480"/>
<stop offset="1" stop-color="#4AB480" stop-opacity="0"/>
</radialGradient>
<radialGradient id="paint3_radial_18_22399" cx="0" cy="0" r="1" gradientUnits="userSpaceOnUse" gradientTransform="translate(28.6511 13.8639) rotate(89.6424) scale(15.9323 4.11632)">
<stop offset="0.185967" stop-color="#DEF352"/>
<stop offset="1" stop-color="#D4DB4A"/>
</radialGradient>
<linearGradient id="paint4_linear_18_22399" x1="23.9223" y1="16.3829" x2="27.7672" y2="16.0736" gradientUnits="userSpaceOnUse">
<stop stop-color="#B7D44E"/>
<stop offset="1" stop-color="#B7D44E" stop-opacity="0"/>
</linearGradient>
<linearGradient id="paint5_linear_18_22399" x1="33.6672" y1="15.7863" x2="32.2971" y2="15.8305" gradientUnits="userSpaceOnUse">
<stop stop-color="#C1CF60"/>
<stop offset="1" stop-color="#C1CF60" stop-opacity="0"/>
</linearGradient>
<linearGradient id="paint6_linear_18_22399" x1="23.125" y1="2.38281" x2="29.7813" y2="8.82031" gradientUnits="userSpaceOnUse">
<stop stop-color="#2DDE77"/>
<stop offset="0.653995" stop-color="#42E994"/>
<stop offset="1" stop-color="#4FCB88"/>
</linearGradient>
<radialGradient id="paint7_radial_18_22399" cx="0" cy="0" r="1" gradientUnits="userSpaceOnUse" gradientTransform="translate(27.8438 5.75781) rotate(133.364) scale(0.386857 2.89607)">
<stop stop-color="#6AFDA4"/>
<stop offset="1" stop-color="#6AFDA4" stop-opacity="0"/>
</radialGradient>
<linearGradient id="paint8_linear_18_22399" x1="23.25" y1="2.25781" x2="24.1562" y2="3.13281" gradientUnits="userSpaceOnUse">
<stop stop-color="#56C675"/>
<stop offset="1" stop-color="#56C675" stop-opacity="0"/>
</linearGradient>
<radialGradient id="paint9_radial_18_22399" cx="0" cy="0" r="1" gradientUnits="userSpaceOnUse" gradientTransform="translate(25 6.4765) rotate(137.07) scale(1.83526 4.66524)">
<stop stop-color="#554962"/>
<stop offset="1" stop-color="#4F4659"/>
</radialGradient>
<radialGradient id="paint10_radial_18_22399" cx="0" cy="0" r="1" gradientUnits="userSpaceOnUse" gradientTransform="translate(10.3684 21.1082) rotate(136.744) scale(2.17928 4.83397)">
<stop stop-color="#6E518D"/>
<stop offset="1" stop-color="#593E74"/>
</radialGradient>
<radialGradient id="paint11_radial_18_22399" cx="0" cy="0" r="1" gradientUnits="userSpaceOnUse" gradientTransform="translate(9.28125 23.8876) rotate(134.49) scale(2.09588 3.87398)">
<stop stop-color="#50D89F"/>
<stop offset="1" stop-color="#41BE77"/>
</radialGradient>
<radialGradient id="paint12_radial_18_22399" cx="0" cy="0" r="1" gradientUnits="userSpaceOnUse" gradientTransform="translate(17.328 14.9531) rotate(90) scale(2.08256 6.99919)">
<stop offset="0.215071" stop-color="#594A69"/>
<stop offset="1" stop-color="#473F51"/>
</radialGradient>
<radialGradient id="paint13_radial_18_22399" cx="0" cy="0" r="1" gradientUnits="userSpaceOnUse" gradientTransform="translate(10.9566 16.2976) rotate(6.42215) scale(5.60273 2.70376)">
<stop offset="0.221254" stop-color="#6C508B"/>
<stop offset="1" stop-color="#6C508B" stop-opacity="0"/>
</radialGradient>
</defs>
</svg>

<svg width="100%" height="100%" viewBox="0 0 32 32" xmlns="http://www.w3.org/2000/svg"><path fill="url(#a)" d="m5.797 19.836 6.453 6.453-1.203 1.125-7.226 2.111a1 1 0 0 1-1.24-1.243l1.981-6.712z"/><path fill="url(#b)" d="m5.797 19.836 6.453 6.453-1.203 1.125-7.226 2.111a1 1 0 0 1-1.24-1.243l1.981-6.712z"/><path fill="url(#c)" d="m5.797 19.836 6.453 6.453-1.203 1.125-7.226 2.111a1 1 0 0 1-1.24-1.243l1.981-6.712z"/><rect width="9.126" height="28.351" x="24.188" y="1.445" fill="url(#d)" rx=".75" transform="rotate(45 24.188 1.445)"/><rect width="9.126" height="28.351" x="24.188" y="1.445" fill="url(#e)" rx=".75" transform="rotate(45 24.188 1.445)"/><rect width="9.126" height="28.351" x="24.188" y="1.445" fill="url(#f)" rx=".75" transform="rotate(45 24.188 1.445)"/><path fill="url(#g)" d="m29.14 9.398-6.453-6.453.97-.97a.75.75 0 0 1 1.06 0l5.393 5.393a.75.75 0 0 1 0 1.06z"/><path fill="url(#h)" d="m29.14 9.398-6.453-6.453.97-.97a.75.75 0 0 1 1.06 0l5.393 5.393a.75.75 0 0 1 0 1.06z"/><path fill="url(#i)" d="m29.14 9.398-6.453-6.453.97-.97a.75.75 0 0 1 1.06 0l5.393 5.393a.75.75 0 0 1 0 1.06z"/><path fill="url(#j)" d="m20.984 4.648.868-.868 6.454 6.453-.869.868z"/><path fill="url(#k)" d="m6.353 19.28.868-.868 6.453 6.453-.868.868z"/><g filter="url(#l)"><path fill="url(#m)" d="m11.945 26.594-.82.821a.75.75 0 0 1-1.062 0l-5.392-5.392a.75.75 0 0 1 0-1.061l.821-.821z"/></g><ellipse cx="17.328" cy="14.953" fill="url(#n)" rx="6.999" ry="2.083" transform="rotate(-45.082 17.328 14.953)"/><ellipse cx="17.328" cy="14.953" fill="url(#o)" rx="6.999" ry="2.083" transform="rotate(-45.082 17.328 14.953)"/><defs><radialGradient id="c" cx="0" cy="0" r="1" gradientTransform="matrix(2.02368 .1875 -.19086 2.06 2.539 28.82)" gradientUnits="userSpaceOnUse"><stop stop-color="#4AB480"/><stop offset="1" stop-color="#4AB480" stop-opacity="0"/></radialGradient><radialGradient id="d" cx="0" cy="0" r="1" gradientTransform="matrix(.09944 15.93199 -4.11624 .0257 28.651 13.864)" gradientUnits="userSpaceOnUse"><stop offset=".186" stop-color="#DEF352"/><stop offset="1" stop-color="#D4DB4A"/></radialGradient><radialGradient id="h" cx="0" cy="0" r="1" gradientTransform="rotate(133.364 12.681 8.88)scale(.38686 2.89605)" gradientUnits="userSpaceOnUse"><stop stop-color="#6AFDA4"/><stop offset="1" stop-color="#6AFDA4" stop-opacity="0"/></radialGradient><radialGradient id="j" cx="0" cy="0" r="1" gradientTransform="matrix(-1.34375 1.25 -3.17752 -3.41583 25 6.476)" gradientUnits="userSpaceOnUse"><stop stop-color="#554962"/><stop offset="1" stop-color="#4F4659"/></radialGradient><radialGradient id="k" cx="0" cy="0" r="1" gradientTransform="rotate(136.744 1 12.61)scale(2.17928 4.83397)" gradientUnits="userSpaceOnUse"><stop stop-color="#6E518D"/><stop offset="1" stop-color="#593E74"/></radialGradient><radialGradient id="m" cx="0" cy="0" r="1" gradientTransform="rotate(134.49 -.37 13.89)scale(2.09588 3.87398)" gradientUnits="userSpaceOnUse"><stop stop-color="#50D89F"/><stop offset="1" stop-color="#41BE77"/></radialGradient><radialGradient id="n" cx="0" cy="0" r="1" gradientTransform="matrix(0 2.08256 -6.99919 0 17.328 14.953)" gradientUnits="userSpaceOnUse"><stop offset=".215" stop-color="#594A69"/><stop offset="1" stop-color="#473F51"/></radialGradient><radialGradient id="o" cx="0" cy="0" r="1" gradientTransform="matrix(5.56757 .62668 -.30242 2.6868 10.957 16.298)" gradientUnits="userSpaceOnUse"><stop offset=".221" stop-color="#6C508B"/><stop offset="1" stop-color="#6C508B" stop-opacity="0"/></radialGradient><linearGradient id="a" x1="4.08" x2="6.026" y1="24.701" y2="29.022" gradientUnits="userSpaceOnUse"><stop stop-color="#3FB171"/><stop offset="1" stop-color="#449B8E"/></linearGradient><linearGradient id="b" x1="7.797" x2="7.078" y1="24.701" y2="25.555" gradientUnits="userSpaceOnUse"><stop offset=".246" stop-color="#35B27D"/><stop offset="1" stop-color="#35B27D" stop-opacity="0"/></linearGradient><linearGradient id="e" x1="23.922" x2="27.767" y1="16.383" y2="16.074" gradientUnits="userSpaceOnUse"><stop stop-color="#B7D44E"/><stop offset="1" stop-color="#B7D44E" stop-opacity="0"/></linearGradient><linearGradient id="f" x1="33.667" x2="32.297" y1="15.786" y2="15.831" gradientUnits="userSpaceOnUse"><stop stop-color="#C1CF60"/><stop offset="1" stop-color="#C1CF60" stop-opacity="0"/></linearGradient><linearGradient id="g" x1="23.125" x2="29.781" y1="2.383" y2="8.82" gradientUnits="userSpaceOnUse"><stop stop-color="#2DDE77"/><stop offset=".654" stop-color="#42E994"/><stop offset="1" stop-color="#4FCB88"/></linearGradient><linearGradient id="i" x1="23.25" x2="24.156" y1="2.258" y2="3.133" gradientUnits="userSpaceOnUse"><stop stop-color="#56C675"/><stop offset="1" stop-color="#56C675" stop-opacity="0"/></linearGradient><filter id="l" width="7.644" height="7.644" x="4.451" y="19.991" color-interpolation-filters="sRGB" filterUnits="userSpaceOnUse"><feFlood flood-opacity="0" result="BackgroundImageFix"/><feBlend in="SourceGraphic" in2="BackgroundImageFix" result="shape"/><feColorMatrix in="SourceAlpha" result="hardAlpha" values="0 0 0 0 0 0 0 0 0 0 0 0 0 0 0 0 0 0 127 0"/><feOffset dx=".15" dy="-.15"/><feGaussianBlur stdDeviation=".25"/><feComposite in2="hardAlpha" k2="-1" k3="1" operator="arithmetic"/><feColorMatrix values="0 0 0 0 0.215686 0 0 0 0 0.737255 0 0 0 0 0.556863 0 0 0 1 0"/><feBlend in2="shape" result="effect1_innerShadow_18_22399"/></filter></defs></svg>
